!!!!SEGMENT: pl-kk--kk-i-3--012_anonim--ungaricum-patrem.krn
!!!cenid: 15xx:611
!!!COM: Anonim
!!!COM-rismID: pe30004985
!!!CDT:
!!!CNT:
!!!OTL: Patrem Ungaricum
!!!PDT:
!!!AGN:
!!!SMS-siglum: PL-Kk
!!!SMS-shelfmark: Kk.I.3
!!!SMS-shelfwork: 012 W
!!!SMS-variant:
!!!SMS-altvar:
!!!NIFC-rismSourceID: 1001145493
!!!NIFC-rismChildID: 1001145493
!!!NIFC-islandoraID: pl-kk:1170
!!!URL-pdf-islandora: https://repozytorium.nifc.pl/islandora/object/pl-kk%3A1170/datastream/PDF/view
!!!URL-scan: https://polish.musicsources.pl/pl/lokalizacje/galeria/rekopisy/5919 @EN{Scan on Polish Music Sources Website} @PL{Skany w portalu Dziedzictwo Muzyki Polskiej w otwartym dostępie}
!!!IIIF:
!!!ONB-nifc: UWAGA: Discantus (s. 61v-65r, skan 0064-0067), Tenor (s. 42v-45r, skan 0215-0217), Bassus (s. 57v-60v, skan 0361-0364)
!!!AIN: 1 bass 1 tenor 1 vox
!!!key: C
**kern	**text	**kern	**text	**kern	**text
*part3	*part3	*part2	*part2	*part1	*part1
*staff3	*staff3	*staff2	*staff2	*staff1	*staff1
*I"Bassus	*	*I"Tenor	*	*I"Discantus	*
*I'B	*	*I'T	*	*I'S	*
*Ibass	*	*Itenor	*	*Ivox	*
*ICvox	*	*ICvox	*	*ICvox	*
*clefF4	*	*clefF4	*	*clefC4	*
*k[]	*	*k[]	*	*k[]	*
*C:	*	*C:	*	*C:	*
*M2/1	*	*M2/1	*	*M2/1	*
*met(C|)	*	*met(C|)	*	*	*
=1-	=1-	=1-	=1-	=1-	=1-
1C	Pa-	1C	Pa-	1c	Pa-
1D	-trem	1GG	-trem	1B	-trem
=2-	=2-	=2-	=2-	=2-	=2-
1E	om-	1C	om-	1c	om-
*	*	*	*	*2\right	*
2D/	-ni-	2F/	-ni-	2d\	-ni-
2D/	-po-	2F/	-po-	2d\	-po-
=3-	=3-	=3-	=3-	=3-	=3-
*lig	*	*lig	*	*	*
1BB	-tem-	1E	-ten-	2G/	-ten-
.	.	.	.	1c	.
1GG	.	1D	.	.	.
.	.	.	.	2B/	.
*Xlig	*	*Xlig	*	*	*
=4-	=4-	=4-	=4-	=4-	=4-
0AA,	-tem	0C	-tem	0c	-tem
=5-	=5-	=5-	=5-	=5-	=5-
1GG	fa-	1G	fac-	1B	fac-
*	*	*custos:G	*	*	*
1FF	-cto-	1A	-to-	1c	-to-
=6-	=6-	=6-	=6-	=6-	=6-
*custos:AA	*	*	*	*custos:A	*
!	!	!LO:LB:g=original	!	!	!
1GG	rem	1G	-rem	1B	-rem
!LO:LB:g=original	!	!	!	!LO:PB:g=original	!
2AA/	ce-	1F	ce-	1A	ce-
2BB/	.	.	.	.	.
=7-	=7-	=7-	=7-	=7-	=7-
1C	-li	2E/	-li	2G/	-li
.	.	2E/	et	1c	et
1GG	et ter-	1D	ter-	.	.
.	.	.	.	2B/	ter-
=8-	=8-	=8-	=8-	=8-	=8-
0G	-re	0C	-re	0c	-re
=9-	=9-	=9-	=9-	=9-	=9-
*2\right	*	*	*	*	*
2G\	vi-	2E/	vi-	2B/	vi-
2G\	-si-	2E/	-si-	2B/	-si-
2A\	-bi-	2AA/	-bi-	2c/	-bi-
2A\	-li-	2AA/	-li-	2d/	-li-
=10-	=10-	=10-	=10-	=10-	=10-
*	*	*lig	*	*	*
2G\	-um	1C	-vm	1e	-vm
2E/	.	.	.	.	.
2F,\	.	1D	.	1d,	.
1A\	om-	.	.	.	.
*	*	*Xlig	*	*	*
=11-	=11-	=11-	=11-	=11-	=11-
.	.	1AA	om-	1c	om-
1G	.	.	.	.	.
.	.	1AA	-ni-	1c	-ni-
*custos:G	*	*	*	*	*
2F\	-ni-	.	.	.	.
=12-	=12-	=12-	=12-	=12-	=12-
!LO:PB:g=original	!	!	!	!	!
0G,	-vm	0GG	-um	0B	-vm
=13-	=13-	=13-	=13-	=13-	=13-
*	*	*custos:E	*	*	*
1G	et	1C	et	1c	et
*	*	*	*	*custos:A	*
!	!	!LO:LB:g=original	!	!	!
1G	in-	1E	in-	2B/	in-
!	!	!	!	!LO:LB:g=original	!
.	.	.	.	2A/	.
=14-	=14-	=14-	=14-	=14-	=14-
1E	-vi-	1G	-vi-	2B/	vi-
.	.	.	.	2c/	.
1D	-si-	1A	-si-	1d	-si-
=15-	=15-	=15-	=15-	=15-	=15-
*	*	*lig	*	*	*
2C/	-bi-	1E	-bi-	1G	-bi-
1C	.	.	.	.	.
.	.	1D	.	2A/	.
2BB/	.	.	.	2B/	.
*	*	*Xlig	*	*	*
=16-	=16-	=16-	=16-	=16-	=16-
1C	.	1C	.	2G/	.
.	.	.	.	1c	.
1GG	-li-	1D	-li-	.	.
.	.	.	.	2B/	-li-
=17-	=17-	=17-	=17-	=17-	=17-
0AA,	-um	0C	-um	0c,	-vm
=18-	=18-	=18-	=18-	=18-	=18-
2GG/	et	1G	et	1B	et
1GG	in	.	.	.	.
.	.	1A	in	1c	in
2FF/	v-	.	.	.	.
=19-	=19-	=19-	=19-	=19-	=19-
*custos:C	*	*	*	*	*
0GG	-num,	1G	v-	1B	v-
.	.	1G,	-num	1B	-num
=20-	=20-	=20-	=20-	=20-	=20-
*	*	*lig	*	*	*
*	*	*	*	*custos:G	*
!LO:LB:g=original	!	!	!	!	!
2C/	do-	1C	do-	2G/	do-
!	!	!	!	!LO:LB:g=original	!
!	!	!	!	!LO:TX:a:t=''	!
2C/	-mi-	.	.	1G	-mi-
*	*	*custos:G	*	*	*
2D,/	-nu(m)	1A	.	.	.
2D/	no-	.	.	2F/	-nu(m)-
*	*	*Xlig	*	*	*
=21-	=21-	=21-	=21-	=21-	=21-
!	!	!	!	!LO:TX:t=P:tekst:problem	!
!	!	!LO:LB:g=original	!	!LO:TX:a:t=''	!
1E,	-stru(m)	1G	-mi-	0G	-n(um)?
1C	ie-	1G,	-nu(m)	.	.
=22-	=22-	=22-	=22-	=22-	=22-
2C/	-su(m)	2E/	Je-	2G/	Je-
1G	cris-	2E,/	-ſum	2G/	-sum
.	.	1D	Chri-	2A/	cri-
2F/	-tum	.	.	2B/	.
=23-	=23-	=23-	=23-	=23-	=23-
0G,	.	0C,	-ſtum	0c	-stum
=24-	=24-	=24-	=24-	=24-	=24-
1G	fi-	1E	fi-	1B	fi-
2A\	-li-	2AA/	-li-	2c/	-li-
2A\	-um	2AA,/	-um	2c/	-u(m)
=25-	=25-	=25-	=25-	=25-	=25-
2G\	de-	1C	de-	2c/	de-
*custos:F	*	*	*	*	*
2E/	.	.	.	2B/	-i
!LO:LB:g=original	!	!	!	!	!
1F	-i	1D,	-i	2A/	.
.	.	.	.	2d,/	.
=26-	=26-	=26-	=26-	=26-	=26-
*	*	*	*	*custos:c	*
2E/	u-	2AA/	V-	2c/	v-
!	!	!	!	!LO:LB:g=original	!
2C/	-ni-	2AA/	-ni-	2c/	-ni-
2E/	-ge-	2AA/	-ge-	2c/	-ge-
2F/	-ni-	2AA/	-ni-	2c/	-ni-
=27-	=27-	=27-	=27-	=27-	=27-
*	*	*custos:C	*	*	*
2G/	-tum	0GG	-tum	2B/	-tum
2E/	.	.	.	1c	.
1D,	.	.	.	.	.
.	.	.	.	2B/	et
=28-	=28-	=28-	=28-	=28-	=28-
!	!	!LO:LB:g=original	!	!LO:TX:a:t=''	!
2C/	et	2C/	et	1c	ex
2C/	ex	2C/	ex	.	.
2C/	pa-	2E/	pa-	2c/	pat-
2C/	-tre	2E/	-tre	2C/	-re
=29-	=29-	=29-	=29-	=29-	=29-
*	*	*2\right	*	*	*
1BB	na-	2G\	na-	2D/	na-
.	.	2G\	-tum	2D/	-tum
1AA	-tu(m)	2A\	an-	2E/	an-
.	.	2A\	-te	1C/	-te
=30-	=30-	=30-	=30-	=30-	=30-
2C/	an-	1E	om-	.	.
*custos:BB	*	*	*	*	*
1C	-te	.	.	2c\	om-
.	.	2D/	-ni-	2d\	-ni-
*	*	*	*	*custos:e	*
!LO:LB:g=original	!	!	!	!	!
2BB/	om-	2D/	-a	2d\	-a
=31-	=31-	=31-	=31-	=31-	=31-
!	!	!	!	!LO:LB:g=original	!
2C/	-ni-	1C	se-	2e\	se-
2C/	-a	.	.	1c	.
2GG/	se-	1D	-cv-	.	.
2GG/	-cu-	.	.	2B/	-cv-
=32-	=32-	=32-	=32-	=32-	=32-
*	*	*custos:G	*	*	*
0Cl;<	-la	0Cl;	-la	0cl;<	-la
=33-	=33-	=33-	=33-	=33-	=33-
*	*	*clefF3	*	*	*
!	!	!LO:PB:g=original	!	!	!
2C/	de-	1G	De-	1e	de-
2E,/	.	.	.	.	.
2D/	-um	2A/	-um	2f\	-um
2D/	de	2B/	de	2f\	de-
=34-	=34-	=34-	=34-	=34-	=34-
1C	de-	1c	de-	1e	.
2GG,/	-o	2B/	-o	2d\	-o
(>2D/	lu-	2A/	lu-	2f\	lu-
=35-	=35-	=35-	=35-	=35-	=35-
2C/)	.	1c	-men	1e	-men
*custos:E	*	*	*	*	*
2D,/	-me(n)	.	.	.	.
!LO:LB:g=original	!	!	!	!	!
(>2E/	de	2B/	de	2e\	de
2F/)	.	2A/	.	2c/	.
=36-	=36-	=36-	=36-	=36-	=36-
2G/	lu-	1G	lu-	2B/	.
*	*	*	*	*custos:F	*
2E/	.	.	.	1G	lu-
1D	-mi-	1A	-mi-	.	.
!	!	!	!	!LO:PB:g=original	!
.	.	.	.	2F/	.
=37-	=37-	=37-	=37-	=37-	=37-
2E/	-ne	0G	-ne	2G/	-mi-
(>1C	.	.	.	2E/	.
.	.	.	.	1D,	-ne
2BB,/)	.	.	.	.	.
=38-	=38-	=38-	=38-	=38-	=38-
1AA	de-	1c	de-	2E/	de-
.	.	.	.	2C/	.
1GG,	-um	1B	-um	2D/	-vm
.	.	.	.	1G/	.
=39-	=39-	=39-	=39-	=39-	=39-
1D	ve-	1A	ve-	.	.
.	.	.	.	2F/	ve-
*	*	*custos:G	*	*	*
1E	-ru(m)	1G	-rum	2G/	-rum
.	.	.	.	1E/	de
=40-	=40-	=40-	=40-	=40-	=40-
*	*	*clefF4	*	*	*
!	!	!LO:LB:g=original	!	!	!
1C	de	1G	de	.	.
.	.	.	.	1e	de-
1D	de-	1F	de-	.	.
.	.	.	.	2d\	-o
=41-	=41-	=41-	=41-	=41-	=41-
1AA	-o	0E	-o	0e	.
*custos:C	*	*	*	*	*
1C	.	.	.	.	.
=42-	=42-	=42-	=42-	=42-	=42-
*	*	*lig	*	*	*
!LO:PB:g=original	!	!	!	!	!
2C/	ve-	1G	ve-	1e	ve-
2E/	.	.	.	.	.
*	*	*	*	*custos:d	*
1D	.	1A	.	1f	.
*	*	*Xlig	*	*	*
=43-	=43-	=43-	=43-	=43-	=43-
!	!	!	!	!LO:LB:g=original	!
2GG/	.	1G	.	2d\	.
1C	.	.	.	2e\	.
.	.	1F	.	1d	.
2BB/	.	.	.	.	.
=44-	=44-	=44-	=44-	=44-	=44-
1C	.	1E	.	2G/	.
.	.	.	.	1c	.
1GG	.	1D	.	.	.
.	.	.	.	2B/	.
=45-	=45-	=45-	=45-	=45-	=45-
0AA,	-ro	0C	-ro	0c	-ro
=46-	=46-	=46-	=46-	=46-	=46-
1AA	ge-	1E	ge-	1c	ge-
1FF	-ni-	1AA	-ni-	1c	-ni-
=47-	=47-	=47-	=47-	=47-	=47-
1FF	-tum	1C	-tu(m)	1A	-tum
1F,	no(n)	1D	non	1A	no(n)
=48-	=48-	=48-	=48-	=48-	=48-
1E	fa-	0AA	fa-	2A/	fa-
.	.	.	.	1G	.
1C	.	.	.	.	.
.	.	.	.	2F/	.
=49-	=49-	=49-	=49-	=49-	=49-
*custos:E	*	*custos:C	*	*	*
0D,	-ctum	0GG	-ctum	0G	-ctvm
=50-	=50-	=50-	=50-	=50-	=50-
!LO:LB:g=original	!	!LO:LB:g=original	!	!	!
2E/	con	2C/	con	2G/	con
*	*	*	*	*custos:G	*
2E/	sub-	2C/	sub-	2G/	sub-
!	!	!	!	!LO:LB:g=original	!
2C/	-stan-	2E/	-stan-	2G/	-stan-
2C/	.	2E/	-ci-	1E/	-ti-
=51-	=51-	=51-	=51-	=51-	=51-
1BB	-a-	1G	-a-	.	.
.	.	.	.	2D/	-a-
1AA,	-lem	1A	-lem	2E/	-lem
.	.	.	.	2C/	.
=52-	=52-	=52-	=52-	=52-	=52-
*	*	*lig	*	*	*
2BB/	pa-	1E	Pa-	1c	Pa-
1C	.	.	.	.	.
.	.	1D	.	1d	.
2BB/	.	.	.	.	.
*	*	*Xlig	*	*	*
=53-	=53-	=53-	=53-	=53-	=53-
*	*	*lig	*	*	*
1C	.	1C	.	2e\	.
.	.	.	.	1c	-tri
1GG	.	1D	.	.	.
.	.	.	.	2B/	.
*	*	*Xlig	*	*	*
=54-	=54-	=54-	=54-	=54-	=54-
0G	-tri	0C	tri	2c/	.
.	.	.	.	2B/	.
.	.	.	.	2c/	.
.	.	.	.	2d,\	.
=55-	=55-	=55-	=55-	=55-	=55-
2C/	per	1G	Per	1e	Per
2D,/	.	.	.	.	.
2E/	qvem	1G	que(m)	1e	qvem
*custos:G	*	*	*	*	*
2F/	.	.	.	.	.
=56-	=56-	=56-	=56-	=56-	=56-
*	*	*	*	*custos:C	*
!LO:LB:g=original	!	!	!	!	!
1G	om-	1C	om-	1e	om-
!	!	!	!	!LO:LB:g=original	!
1A	-ni-	2F/	-ni-	2c/	-ni-
*	*	*custos:E	*	*	*
.	.	2F/	-a	1d\	.
=57-	=57-	=57-	=57-	=57-	=57-
*	*	*lig	*	*	*
!	!	!LO:LB:g=original	!	!	!
2G,\	-a	1E	fa-	.	.
1G	fa-	.	.	1c	.
.	.	1D	.	.	.
2F/	.	.	.	2B/	-a
*	*	*Xlig	*	*	*
=58-	=58-	=58-	=58-	=58-	=58-
1G	.	0C	.	1c	.
1E	.	.	.	1G	fa-
=59-	=59-	=59-	=59-	=59-	=59-
2E/	.	1C	.	2G/	.
1E	.	.	.	1A	.
.	.	1BB	.	.	.
2D/	.	.	.	2G/	.
=60-	=60-	=60-	=60-	=60-	=60-
1E	.	0AA	.	0A	.
1C	.	.	.	.	.
=61-	=61-	=61-	=61-	=61-	=61-
*	*	*lig	*	*	*
1C	.	1E	.	1G	.
1FF	.	1F	.	1A	.
*	*	*Xlig	*	*	*
=62-	=62-	=62-	=62-	=62-	=62-
1C	.	1E	.	2G/	.
.	.	.	.	2A/	.
1GG	.	1D	.	1B	.
=63-	=63-	=63-	=63-	=63-	=63-
*custos:GG	*	*	*	*	*
1AA	.	1C	.	2c/	.
*	*	*	*	*custos:B	*
.	.	.	.	1c	.
!LO:LB:g=original	!	!	!	!	!
1GG	-cta	1D	-cta	.	.
!	!	!	!	!LO:LB:g=original	!
.	.	.	.	2B/	cta
=64-	=64-	=64-	=64-	=64-	=64-
0Gl;<	su(n)t	0Cl;>	sunt	0cl;<	sunt
=65-	=65-	=65-	=65-	=65-	=65-
1C	Qui	1C	Qui	1c	Qui
1D	Prop-	1GG	prop-	1B	Prop-
=66-	=66-	=66-	=66-	=66-	=66-
*	*	*custos:F	*	*	*
1E	-ter	1C	-ter	1c	-ter
!	!	!LO:LB:g=original	!	!	!
1D	nos	1F	nos	1d	nos
=67-	=67-	=67-	=67-	=67-	=67-
1C	ho-	1E	ho-	2G/	ho-
.	.	.	.	1c	.
1GG	-mi-	1D	-mi-	.	.
.	.	.	.	2B/	-mi-
=68-	=68-	=68-	=68-	=68-	=68-
0AA,	-nes	0C	-nes	0c	-nes
=69-	=69-	=69-	=69-	=69-	=69-
1GG	et	1G	et	1B	et
2FF/	Prop-	2A\	prop-	2c/	Prop-
2FF/	-ter	2A\	-ter	2c/	-ter
=70-	=70-	=70-	=70-	=70-	=70-
*	*	*	*	*custos:A	*
1GG	no-	1G	noſ-	1B	no-
!	!	!	!	!LO:PB:g=original	!
2AA/	-stram	1F	-tra(m)	1A	-stram
*custos:C	*	*	*	*	*
2BB/	.	.	.	.	.
=71-	=71-	=71-	=71-	=71-	=71-
!LO:LB:g=original	!	!	!	!	!
1C	sa-	1E	sa-	2G/	sa-
.	.	.	.	1c	.
1GG	-lu-	1D	-lu-	.	.
.	.	.	.	2B/	-lu-
=72-	=72-	=72-	=72-	=72-	=72-
0G,	-tem	0C	-tem	0c	-tem
=73-	=73-	=73-	=73-	=73-	=73-
1G	de-	1E	de-	1B	de-
1A	-scen-	1AA	-scen-	2c/	-scen-
.	.	.	.	2d/	.
=74-	=74-	=74-	=74-	=74-	=74-
*	*	*custos:D	*	*	*
2G\	-dit	1C	-dit	1e	-det
2E/	.	.	.	.	.
!	!	!LO:PB:g=original	!	!	!
2F,/	.	1D	de	1d	de
1A\	de	.	.	.	.
=75-	=75-	=75-	=75-	=75-	=75-
.	.	0AA	ce-	0c	ce-
1G	.	.	.	.	.
2F/	ce-	.	.	.	.
=76-	=76-	=76-	=76-	=76-	=76-
0G,	-lis	0GG	-lis	0B	-lis
=77-	=77-	=77-	=77-	=77-	=77-
1G	et	1C	et	1c	et
2G\	in-	2E/	in-	2B/	in-
2G\	-car-	2E/	-car-	2B/	-car-
=78-	=78-	=78-	=78-	=78-	=78-
*custos:E	*	*	*	*custos:c	*
2E/	-na-	2G/	-na-	2B/	-na-
!LO:PB:g=original	!	!	!	!LO:LB:g=original	!
2E,/	-tus	2G/	-tus	2c/	-tus
1D	est	1A	eſt	1d	est
=79-	=79-	=79-	=79-	=79-	=79-
2C/	de	2E/	de	2G/	de
1C	spi-	2E/	spi-	2G/	spi-
.	.	2D/	-ri-	2A/	ri-
2BB/	-ri-	2D/	-tu	2B/	-tu
=80-	=80-	=80-	=80-	=80-	=80-
*	*	*lig	*	*	*
1C	-tu	1C	san-	2G/	.
.	.	.	.	1c	san-
1GG	san-	1D	.	.	.
.	.	.	.	2B/	.
*	*	*Xlig	*	*	*
=81-	=81-	=81-	=81-	=81-	=81-
*	*	*custos:G	*	*	*
0Cl;<	-cto	0Cl;<	-cto	0cl;<	-cto
*	*	*clefF3	*	*	*
=82-	=82-	=82-	=82-	=82-	=82-
!	!	!LO:LB:g=original	!	!	!
2C/	ex	1G	ex	1e	Ex
2E,/	.	.	.	.	.
2D/	ma-	2A/	ma-	1f	ma-
2D/	.	2B/	.	.	.
=83-	=83-	=83-	=83-	=83-	=83-
1C	-ri-	1c	-ri-	1e	-ri-
2GG/	-a	2B/	-a	2d\	-a
*custos:C	*	*	*	*custos:e	*
2D/	.	2A/	.	2f\	.
=84-	=84-	=84-	=84-	=84-	=84-
!LO:LB:g=original	!	!	!	!LO:LB:g=original	!
1C	vir-	1c	vir-	1e	vir-
2E/	.	2B\	.	2e\	.
2F/	.	2A/	.	2c/	.
=85-	=85-	=85-	=85-	=85-	=85-
*	*	*lig	*	*	*
2G/	.	1G	-g(i)-	2B/	.
2E/	-gi-	.	.	1G	.
1D	-ne	1A	.	.	.
.	.	.	.	2F/	.
*	*	*Xlig	*	*	*
=86-	=86-	=86-	=86-	=86-	=86-
2E/	.	0G	-ne	2G/	.
1C	.	.	.	1E	-gi-
2BB,/	.	.	.	2D/	-ne
=87-	=87-	=87-	=87-	=87-	=87-
*	*	*lig	*	*	*
1AA	et	1c	et	2E/	et
.	.	.	.	2C/	.
1GG	.	1B	.	2D/	.
.	.	.	.	1G/	.
*	*	*Xlig	*	*	*
=88-	=88-	=88-	=88-	=88-	=88-
1D	ho-	1A	ho-	.	.
.	.	.	.	2F/	ho-
1E	-mo	1G	-mo	1G	-mo
=89-	=89-	=89-	=89-	=89-	=89-
*	*	*lig	*	*	*
1C	fa-	1G	fa-	2E/	fa-
*	*	*	*	*custos:d	*
.	.	.	.	1e	.
*	*	*custos:E	*	*	*
1D	.	1F	.	.	.
!	!	!	!	!LO:LB:g=original	!
.	.	.	.	2d\	.
*	*	*Xlig	*	*	*
=90-	=90-	=90-	=90-	=90-	=90-
*	*	*clefF4	*	*	*
*custos:C	*	*	*	*	*
!	!	!LO:LB:g=original	!	!	!
1AA	.	0E	.	0e	.
!LO:LB:g=original	!	!	!	!	!
1C	.	.	.	.	.
=91-	=91-	=91-	=91-	=91-	=91-
*	*	*lig	*	*	*
2C/	.	1G	.	1e	.
2E/	.	.	.	.	.
1D	.	1A	.	1f	.
*	*	*Xlig	*	*	*
=92-	=92-	=92-	=92-	=92-	=92-
2GG/	.	1G	.	2d\	.
1C	.	.	.	2e\	.
*	*	*lig	*	*	*
.	.	1F	.	1d	.
2BB/	.	.	.	.	.
=93-	=93-	=93-	=93-	=93-	=93-
1C	.	1E	.	2G/	ctus
.	.	.	.	1c	.
*	*	*Xlig	*	*	*
1GG	-ctus	1D	ctus	.	.
.	.	.	.	2B/	.
=94-	=94-	=94-	=94-	=94-	=94-
0AA,	eſt	0C	eſt	0c,	est
=95-	=95-	=95-	=95-	=95-	=95-
2AA/	cru-	2E/	cru-	2c/	cru-
2AA/	-ci-	2E/	-ci-	2c/	-ci-
2FF/	-fi-	2AA/	-fi-	2c/	-fi-
2FF/	-xus	2AA/	-xus	2c/	-xus
=96-	=96-	=96-	=96-	=96-	=96-
2FF/	e-	2C/	e-	2A/	e-
*	*	*	*	*custos	*
2FF/	-ci-	2C/	-ci-	2A/	-ci-
*custos:F	*	*	*	*	*
!	!	!	!	!LO:LB:g=original	!
2F/	-am	2D/	-am	1A	-am
!LO:LB:g=original	!	!	!	!	!
2F/	pro	2D/	pro	.	.
=97-	=97-	=97-	=97-	=97-	=97-
1E	no-	0AA	no-	2A/	Pro
.	.	.	.	1G	no-
1C	.	.	.	.	.
.	.	.	.	2F/	.
=98-	=98-	=98-	=98-	=98-	=98-
*	*	*custos:C	*	*	*
0D,	-bis	0GG	-bis	0G	-bis
=99-	=99-	=99-	=99-	=99-	=99-
!	!	!LO:LB:g=original	!	!	!
2E/	sub	2C/	sub	2G/	Sub
2E/	pon-	2C/	pon-	2G/	Pon-
2C/	-ti-	2E/	-ci-	2G/	-ti-
2C/	-o	2E/	-o	2E/	-o
=100-	=100-	=100-	=100-	=100-	=100-
2BB/	pi-	2G\	Pi-	2D/	Pi-
2BB/	-la-	2G\	-la-	2D/	-la-
1AA,	-to	1A	-to	2E/	-to
.	.	.	.	2C/	Pas-
=101-	=101-	=101-	=101-	=101-	=101-
2AA/	Paſ-	2E/	Pas-	1c	-ſus
2C/	-ſus	2E/	-ſus	.	.
2C/	et	2D/	et	1d	et
2BB/	se-	2D/	se-	.	.
=102-	=102-	=102-	=102-	=102-	=102-
*custos:GG	*	*	*	*	*
1C	-pul-	1C	-pul-	2e\	Se-
*	*	*	*	*custos:B	*
.	.	.	.	1c	-pul-
!LO:LB:g=original	!	!	!	!	!
1GG	-tus	1D	-tus	.	.
!	!	!	!	!LO:PB:g=original	!
.	.	.	.	2B/	-tus
=103-	=103-	=103-	=103-	=103-	=103-
*	*	*custos:C	*	*	*
0Cl;<	est	0Cl;>	est	0cl;<	est
=104-	=104-	=104-	=104-	=104-	=104-
!	!	!LO:LB:g=original	!	!	!
1C	et	1C	et	1c	et
2D/	re-	2GG/	re-	2B/	ru-
2D/	-ſur-	2GG/	-sur-	2B/	-ſur-
=105-	=105-	=105-	=105-	=105-	=105-
1E	-re-	1C	-re-	1c	-re-
1D,	-xit	1F	-xit	1d	-xit
=106-	=106-	=106-	=106-	=106-	=106-
2C/	ter-	2E/	ter-	2G/	ter-
2C/	-ci-	2E/	-ci-	2c/	-ci-
2GG/	-a	2D/	-a	2c/	-a
2GG/	di-	2D/	di-	2B/	di-
=107-	=107-	=107-	=107-	=107-	=107-
0AA,	-e	0C	-e	0c	-e
=108-	=108-	=108-	=108-	=108-	=108-
1GG	se-	1G	se-	1B	se-
1FF	.	1A	-cun-	1c	.
=109-	=109-	=109-	=109-	=109-	=109-
*custos:AA	*	*	*	*custos:A	*
1GG	-cu(n)-	1G	-du(m)	1B	-cvn-
*	*	*lig	*	*	*
!LO:PB:g=original	!	!	!	!LO:LB:g=original	!
2AA/	-dum	1F	scrip-	1A	-dum
2BB,/	.	.	.	.	.
=110-	=110-	=110-	=110-	=110-	=110-
1C	scrip-	1E	.	2G/	scri-
.	.	.	.	1c	.
*	*	*Xlig	*	*	*
1GG	-tu-	1D	-tu-	.	.
.	.	.	.	2B/	-Ptu-
=111-	=111-	=111-	=111-	=111-	=111-
*	*	*custos:E	*	*	*
0G,	-ras	0C	-ras	0c	-ras
=112-	=112-	=112-	=112-	=112-	=112-
!	!	!LO:PB:g=original	!	!	!
1G	et	1E	et	1B	aet
1A	as-	1AA	a-	2c/	a-
.	.	.	.	2d\	.
=113-	=113-	=113-	=113-	=113-	=113-
2G\	-cen-	1C	-scen-	1e	-scen-
2E/	.	.	.	.	.
2F,/	-dit	1D	-dit	1d	-dit
1A\	in	.	.	.	.
=114-	=114-	=114-	=114-	=114-	=114-
.	.	1AA	in	1c	in
1G	ce-	.	.	.	.
.	.	1AA	ce-	1c	cae-
2F\	.	.	.	.	.
=115-	=115-	=115-	=115-	=115-	=115-
0G,	-lum	0GG	-lum	0B	-lum
=116-	=116-	=116-	=116-	=116-	=116-
1G	se-	1C	se-	1c	se-
*custos:E	*	*	*	*	*
1G	-det	1E	-det	1B	-det
=117-	=117-	=117-	=117-	=117-	=117-
!LO:LB:g=original	!	!	!	!	!
1E	ad	1G	ad	2B/	ad
*	*	*	*	*custos:d	*
.	.	.	.	2c/	dex-
!	!	!	!	!LO:LB:g=original	!
1D	dex-	1A	dex-	1d	-te-
=118-	=118-	=118-	=118-	=118-	=118-
*	*	*lig	*	*	*
2C/	.	1E	-te-	1G	-ram
1C	-te-	.	.	.	.
.	.	1D	.	2A/	Pa-
2BB/	.	.	.	2B/	.
*	*	*Xlig	*	*	*
=119-	=119-	=119-	=119-	=119-	=119-
1C,	-ram	1C	-ram	2G/	.
.	.	.	.	1c	.
1GG	Pat-	1D	Pa-	.	.
.	.	.	.	2B/	.
=120-	=120-	=120-	=120-	=120-	=120-
*	*	*custos:G	*	*	*
0AA,	-ris	0C	-tris	0c	-tris
=121-	=121-	=121-	=121-	=121-	=121-
!	!	!LO:LB:g=original	!	!	!
2GG/	et	1G	et	1B	et
1GG	i-	.	.	.	.
.	.	1A	i-	1c	i-
2FF/	.	.	.	.	.
=122-	=122-	=122-	=122-	=122-	=122-
1GG	-te-	1G	-te-	1B	-te-
1GG,	-rum	1G	-rum	1B	-rum
=123-	=123-	=123-	=123-	=123-	=123-
2C/	ven-	2E/	ven-	2G/	ven-
2C/	-tu-	2E/	-tu-	2G/	-tu-
*custos:D	*	*	*	*	*
2D,/	-rus	2A\	-rus	2G/	-rus
*	*	*	*	*custos:G	*
!LO:LB:g=original	!	!	!	!	!
2D/	eſt	2A\	pst	2F/	est
=124-	=124-	=124-	=124-	=124-	=124-
!	!	!	!	!LO:LB:g=original	!
2E/	cu(m)	2G\	cum	2G/	cum
2E/	glo-	2G\	gl(o-	2G/	glo-
2C/	-ri-	2G\	-ri)-	2E/	-ri-
2C,/	-a	2G,\	-a	2E/	-a
=125-	=125-	=125-	=125-	=125-	=125-
2C/	iu-	2E/	iu-	2G/	iu-
1G	-di-	2E/	-di-	2G/	-di-
.	.	1D	-ca-	2A/	-ca-
2F\	-ca-	.	.	2B/	-re
=126-	=126-	=126-	=126-	=126-	=126-
*	*	*custos:E	*	*	*
0G,	-re	0C	-re	0c,	.
=127-	=127-	=127-	=127-	=127-	=127-
!	!	!LO:LB:g=original	!	!	!
1G	vi-	1E	vi-	1B	vi-
1A,	-vos	1AA	-vos	1c	-vos
=128-	=128-	=128-	=128-	=128-	=128-
*	*	*lig	*	*	*
2G\	et	1C	et	1c	et
2E/	.	.	.	.	.
1F	.	1D	.	1A	.
*	*	*Xlig	*	*	*
=129-	=129-	=129-	=129-	=129-	=129-
2E/	mor-	1AA	mor-	1c	mor-
*custos:E	*	*	*	*	*
2C/	.	.	.	.	.
!LO:LB:g=original	!	!	!	!	!
2E/	-tu-	1AA	-tu-	1c	-tu-
2F/	.	.	.	.	.
=130-	=130-	=130-	=130-	=130-	=130-
*	*	*	*	*custos:c	*
2G\	-os	0GG	-os	2B/	-os
!	!	!	!	!LO:LB:g=original	!
2E/	.	.	.	1c	.
1D,	.	.	.	.	.
.	.	.	.	2B/	.
=131-	=131-	=131-	=131-	=131-	=131-
1C	cu-	1C	cu-	1c	cu-
1C	-ius	1E	-ius	2c/	-uis
.	.	.	.	2C/	.
=132-	=132-	=132-	=132-	=132-	=132-
1BB	reg-	1G	reg-	1D	reg-
1AA,	-ni	1A	-ni	2E/	-ni
.	.	.	.	1C/	.
=133-	=133-	=133-	=133-	=133-	=133-
2C/	no(n)	1E	no(n)	.	.
1C	e-	.	.	2c\	no(n)
.	.	1D	e-	1d	e-
2BB/	.	.	.	.	.
=134-	=134-	=134-	=134-	=134-	=134-
1C	-rit	1C	-rit	2e\	-rit
.	.	.	.	1c	fi-
1GG	fi-	1D	fi-	.	.
.	.	.	.	2B/	-nis
=135-	=135-	=135-	=135-	=135-	=135-
*custos:C	*	*custos:G	*	*custos:e	*
0Cl;<	-nis	0Cl;<	-nis	0cl;<	.
=136-	=136-	=136-	=136-	=136-	=136-
*	*	*clefF3	*	*	*
!LO:LB:g=original	!	!	!	!LO:PB:g=original	!
(>2C/	et	1G	et	1e	et
2E/)	.	.	.	.	.
2D/	in	2A/	in	2f\	in
2D/	.	2B\	Spi-	2f\	Spi-
=137-	=137-	=137-	=137-	=137-	=137-
1C	spi-	1c	-ri-	1e	-ri-
2GG/	-ri-	2B\	-tum	2d/	-tvm
2D,/	-tu(m)	2A\	.	2f\	san-
=138-	=138-	=138-	=138-	=138-	=138-
2C/	San-	1c	san-	1e	-ctum
2D/	.	.	.	.	.
2E/	-ctum	2B\	-ctum	2e\	.
2F,/	.	2A\	.	2c/	.
=139-	=139-	=139-	=139-	=139-	=139-
2G\	do-	1G	do-	2B/	.
2E/	.	.	.	1G	do-
1D	-mi-	1A	-mi-	.	.
.	.	.	.	2F/	.
=140-	=140-	=140-	=140-	=140-	=140-
2E/	.	0G	-nu(m)	2G/	.
1C	-nu(m)	.	.	2E/	-mi-
.	.	.	.	1D	-num
*custos:AA	*	*	*	*	*
2BB,/	.	.	.	.	.
=141-	=141-	=141-	=141-	=141-	=141-
*	*	*lig	*	*	*
!LO:PB:g=original	!	!	!	!	!
1AA	et	1c	et	2E/	et
*	*	*	*	*custos:D	*
.	.	.	.	2C/	.
!	!	!	!	!LO:LB:g=original	!
1GG	vi-	1B	.	2D/	.
.	.	.	.	1G/	vi-
*	*	*Xlig	*	*	*
=142-	=142-	=142-	=142-	=142-	=142-
1D	-vi-	1A	vi-	.	.
.	.	.	.	2F/	-vi-
1E	.	1G	-vi-	2G/	-fi-
.	.	.	.	1E/	.
=143-	=143-	=143-	=143-	=143-	=143-
*	*	*lig	*	*	*
1C	.	1G	.	.	.
.	.	.	.	1e	.
*	*	*custos:E	*	*	*
1D	.	1F	.	.	.
.	.	.	.	2d\	.
*	*	*Xlig	*	*	*
=144-	=144-	=144-	=144-	=144-	=144-
*	*	*clefF4	*	*	*
!	!	!LO:LB:g=original	!	!	!
1AA	.	0E	.	0e	.
1C	.	.	.	.	.
=145-	=145-	=145-	=145-	=145-	=145-
*	*	*lig	*	*	*
2C/	.	1G	.	2e\	.
2E/	.	.	.	2e\	.
1D	.	1A	.	2f\	.
.	.	.	.	2f\	.
*	*	*Xlig	*	*	*
=146-	=146-	=146-	=146-	=146-	=146-
2GG/	.	1G	.	2d\	.
1C	.	.	.	2e\	.
.	.	1F	.	1d	.
2BB/	.	.	.	.	.
=147-	=147-	=147-	=147-	=147-	=147-
*custos:GG	*	*	*	*	*
1C	-fi-	1E	-fi-	2G/	.
*	*	*	*	*custos:B	*
.	.	.	.	1c	.
!LO:LB:g=original	!	!	!	!	!
1GG	-can-	1D	-can-	.	.
!	!	!	!	!LO:LB:g=original	!
.	.	.	.	2B/	-can-
=148-	=148-	=148-	=148-	=148-	=148-
0AA,	-tem	0C	-tem	0c,	-tem
=149-	=149-	=149-	=149-	=149-	=149-
2AA/	qui	2E/	qui	2c/	qvi
2AA/	ex	2E/	ex	2c/	ex
2FF/	pat-	2AA/	pat-	2c/	pat-
2FF/	-re	2AA/	-re	2c/	-re
=150-	=150-	=150-	=150-	=150-	=150-
2FF/	fi-	2C/	fi-	2A/	fi-
2FF/	-li-	2C/	-li-	2A/	-li-
1F,	-o-	1D	-o-	1A	-o-
=151-	=151-	=151-	=151-	=151-	=151-
*	*	*custos:AA	*	*	*
2E/	-q(ue)	2AA/	-q(ue)	2A/	-q(ue)
!	!	!LO:PB:g=original	!	!	!
2E/	pro-	2AA/	Pro-	1G	pro-
1C	-ce-	1AA	-ce-	.	.
.	.	.	.	2F/	-ce-
=152-	=152-	=152-	=152-	=152-	=152-
0D,	-dit	0GG	-dit	0G	-dit
=153-	=153-	=153-	=153-	=153-	=153-
2E/	qui	2C/	qui	2G/	qvi
2E/	cu(m)	2C/	cum	2G/	cum
*	*	*	*	*custos:E	*
2C/	Pa-	2E/	Pat-	2G/	Pa-
*custos:BB	*	*	*	*	*
!	!	!	!	!LO:LB:g=original	!
2C/	-tre	2E/	-re	2E/	-tre
=154-	=154-	=154-	=154-	=154-	=154-
!LO:LB:g=original	!	!	!	!	!
2BB/	et	2G/	et	2E/	et
2BB/	fi-	2G/	fi-	2D/	fi-
2AA/	-li-	2A\	-li-	2E/	-li-
2AA/	-o	2A\	-o	2C/	-o
=155-	=155-	=155-	=155-	=155-	=155-
2AA/	si-	2E/	si-	2c\	si-
1C	-mul	2E/	-mul	2c\	-mul
.	.	2D/	a-	2d\	a-
*	*	*custos:C	*	*	*
2BB/	a-	2D/	-do-	2d\	-do-
=156-	=156-	=156-	=156-	=156-	=156-
*	*	*lig	*	*	*
!	!	!LO:LB:g=original	!	!	!
1C	-do-	1C	-ra-	2e\	-ra-
.	.	.	.	1c	.
1GG	-ra-	1D	.	.	.
.	.	.	.	2B/	.
*	*	*Xlig	*	*	*
=157-	=157-	=157-	=157-	=157-	=157-
0G,	-tur	0C	-tur	2c/	.
.	.	.	.	2B/	-tur
.	.	.	.	2c/	.
*	*	*	*	*custos:e	*
.	.	.	.	2d/	.
=158-	=158-	=158-	=158-	=158-	=158-
!	!	!	!	!LO:LB:g=original	!
(>2C/	et	1G	et	1e	et
2D,/)	.	.	.	.	.
2E/	con-	1G	con-	1e	con-
2F,/	.	.	.	.	.
=159-	=159-	=159-	=159-	=159-	=159-
1G	-glo-	1C	-glo-	1e	-glo-
*custos:G	*	*	*	*	*
1A	-ri-	1F	-ri-	2c/	-ri-
.	.	.	.	1d\	.
=160-	=160-	=160-	=160-	=160-	=160-
!LO:LB:g=original	!	!	!	!	!
2G\	-fi-	1E	-fi-	.	.
1G	.	.	.	1c	-fi-
.	.	1D	-ca-	.	.
2F\	-ca-	.	.	2B/	-ca-
=161-	=161-	=161-	=161-	=161-	=161-
1G	.	0C	-tur	1c	-tur
1E,	-tur	.	.	1G	.
=162-	=162-	=162-	=162-	=162-	=162-
2E/	qvi	1C	qui	2G/	qvu
1E	lo-	.	.	1A	lo-
.	.	1BB	lo-	.	.
2D/	-cu-	.	.	2G/	-cu-
=163-	=163-	=163-	=163-	=163-	=163-
1E	-tus	2AA/	-cu-	1A	-tus
.	.	2AA/	-tus	.	.
*	*	*custos:E	*	*	*
1C,	est	1AA	est	1A	est
=164-	=164-	=164-	=164-	=164-	=164-
*	*	*lig	*	*	*
*	*	*	*	*custos:A	*
!	!	!LO:LB:g=original	!	!	!
1C	per	1E	Per	1G	.
!	!	!	!	!LO:PB:g=original	!
1FF	.	1F	.	1A	Per
*	*	*Xlig	*	*	*
=165-	=165-	=165-	=165-	=165-	=165-
*	*	*lig	*	*	*
1C	.	1E	.	2G/	.
.	.	.	.	2A/	.
1GG	.	1D	.	1B	.
*	*	*Xlig	*	*	*
=166-	=166-	=166-	=166-	=166-	=166-
1AA	pro-	1C	Pro-	2c/	.
.	.	.	.	1c	Pro-
1GG	-phe-	1D	-phe-	.	.
.	.	.	.	2B/	-phe-
=167-	=167-	=167-	=167-	=167-	=167-
*custos:C	*	*	*	*	*
0Gl;<	-tas	0Cl;>	-tas	0cl;<	-tas
=168-	=168-	=168-	=168-	=168-	=168-
!LO:LB:g=original	!	!	!	!	!
1C	et	1C	et	1c	Et
2D/	v-	2GG/	v-	2B/	v-
2D/	-nam	2GG/	-nam	2B/	-nam
=169-	=169-	=169-	=169-	=169-	=169-
1E	S(an)-	1C	S(an)-	1c	S(an)-
1D,	-ctam	1F	-ctam	1d	-ctam
=170-	=170-	=170-	=170-	=170-	=170-
*	*	*	*	*custos:c	*
1C	Ca-	1E	Ca-	2G/	Ca-
!	!	!	!	!LO:LB:g=original	!
.	.	.	.	1c	-tha-
2GG/	-tho-	2D/	-tho-	.	.
*	*	*custos:C	*	*	*
2GG/	-li-	2D/	-li-	2B/	-li-
=171-	=171-	=171-	=171-	=171-	=171-
!	!	!LO:LB:g=original	!	!	!
0AA,	-cam	0C	-cam	0c	-cam
=172-	=172-	=172-	=172-	=172-	=172-
1GG	et	1G	et	1B	et
2FF/	a-	2A\	a-	2c/	a-
2FF/	-po-	2A\	-po-	2c/	-po-
=173-	=173-	=173-	=173-	=173-	=173-
2GG/	-sto-	2G\	-sto-	2B/	-sto-
2GG/	-li-	2G\	-li-	2B/	-li-
(>2AA/	-cam	2F/	-cam	2A/	-cam
2BB/)	ec-	2F/	ec-	2A/	ec-
=174-	=174-	=174-	=174-	=174-	=174-
*custos:GG	*	*	*	*	*
1C	-cle-	1E	-cle-	2G/	.
.	.	.	.	1c	-cle-
!LO:PB:g=original	!	!	!	!	!
1GG	-si-	1D	-si-	.	.
.	.	.	.	2B/	-si-
=175-	=175-	=175-	=175-	=175-	=175-
0G,	-am	0C	-am	0c	-am
=176-	=176-	=176-	=176-	=176-	=176-
1G	Con-	1E	Con-	1B	con-
*	*	*	*	*custos:d	*
1A	-fi-	1AA	-fi-	2c\	-fi-
!	!	!	!	!LO:LB:g=original	!
.	.	.	.	2d\	.
=177-	=177-	=177-	=177-	=177-	=177-
2G/	-te-	1C	-te-	1e	-te-
2E/	-or	.	.	.	.
*	*	*custos:AA	*	*	*
2F/	u-	1D	-or	1d	-or
1A\	-nu(m)	.	.	.	.
=178-	=178-	=178-	=178-	=178-	=178-
!	!	!LO:LB:g=original	!	!	!
.	.	2AA/	V-	2c/	V-
1G	bap-	2AA/	-num	2c/	-nu(m)
.	.	2AA/	bap-	2c/	bap-
2F/	-tis-	2AA/	-tis-	2c/	-tis-
=179-	=179-	=179-	=179-	=179-	=179-
0G,	-ma	0GG	-ma	0B	-ma
=180-	=180-	=180-	=180-	=180-	=180-
2G/	in	2C/	in	2c/	in
2G/	re-	2C/	re-	2c/	re-
2G/	-miſ-	2E/	-mis-	2B/	-miſ-
2G/	-si-	2E/	-ſi-	2B/	-si-
=181-	=181-	=181-	=181-	=181-	=181-
1E	-o-	1G	-o-	2B/	-o-
.	.	.	.	2c/	.
*custos:C	*	*	*	*	*
1D,	-nem	1A	-nem	1d	-ne(m)
=182-	=182-	=182-	=182-	=182-	=182-
*	*	*lig	*	*	*
*	*	*	*	*custos:A	*
!LO:LB:g=original	!	!	!	!	!
2C/	Pec-	1E	pec-	1G	Pec-
1C	.	.	.	.	.
!	!	!	!	!LO:LB:g=original	!
.	.	1D	.	2A/	.
2BB/	.	.	.	2B/	.
*	*	*Xlig	*	*	*
=183-	=183-	=183-	=183-	=183-	=183-
1C	-ca-	1C	-ca-	2G/	ca-
.	.	.	.	1c	-to-
*	*	*custos:C	*	*	*
1GG	-to-	1D	-to-	.	.
.	.	.	.	2B/	.
=184-	=184-	=184-	=184-	=184-	=184-
!	!	!LO:PB:g=original	!	!	!
0AA,	-ru(m)	0C	-rum	0c,	-rum
=185-	=185-	=185-	=185-	=185-	=185-
2GG/	et	1G	et	1B	et
1GG	ex-	.	.	.	.
.	.	1A	ex-	1c	ex-
2FF/	.	.	.	.	.
=186-	=186-	=186-	=186-	=186-	=186-
1GG	-pec-	1G	-pec-	1B	-pec-
1GG,	-to	1G	-to	1B	-to
=187-	=187-	=187-	=187-	=187-	=187-
2C/	re-	2E/	re-	2G/	re-
2C/	-ſur-	2E/	-ſur-	2G/	-ſur-
2D/	-rec-	2A\	-rec-	2G/	-rec-
2D/	-ti-	2A\	-ti-	2F/	-ti-
=188-	=188-	=188-	=188-	=188-	=188-
1E	-o-	1G	-o-	1G	-o-
*custos:C	*	*	*	*custos:G	*
1C,	-nem	1G	-nem	1E	-nem
=189-	=189-	=189-	=189-	=189-	=189-
!LO:LB:g=original	!	!	!	!LO:LB:g=original	!
2C/	mor-	2E/	mor-	2G/	mor-
1G	-tu-	2E/	-tu-	2G/	-tu-
*	*	*custos:C	*	*	*
.	.	1D	-o-	2A/	-o-
2F\	-o-	.	.	2B/	.
=190-	=190-	=190-	=190-	=190-	=190-
!	!	!LO:LB:g=original	!	!	!
0G,	-ru(m)	0C	-rum	0c	-ru(m)
=191-	=191-	=191-	=191-	=191-	=191-
1G	et	1E	et	1B	et
1A	vi-	1AA	vi-	1c	vi-
=192-	=192-	=192-	=192-	=192-	=192-
2G\	-tam	1C	-tam	1c	-ta(m)
2E,/	.	.	.	.	.
1F	ven-	1D	ven-	1A	ven-
=193-	=193-	=193-	=193-	=193-	=193-
2E/	-tu-	2AA/	-tu-	1c	-tu-
2C,/	-ri	2AA/	-ri	.	.
2E/	se-	2AA/	se-	1c	-ri
2F/	.	2AA/	-cu-	.	.
=194-	=194-	=194-	=194-	=194-	=194-
2G/	.	0GG	-li	2B/	se-
2E/	cu-	.	.	1c	.
*custos:C	*	*	*	*	*
1D	-li	.	.	.	.
*	*	*	*	*custos:c	*
.	.	.	.	2B/	-cu-
=195-	=195-	=195-	=195-	=195-	=195-
*	*	*lig	*	*	*
!LO:LB:g=original	!	!	!	!LO:PB:g=original	!
0C	A-	1C	A-	1c	-li
.	.	1E	.	2c/	A-
.	.	.	.	2C/	.
*	*	*Xlig	*	*	*
=196-	=196-	=196-	=196-	=196-	=196-
*	*	*lig	*	*	*
1BB	.	1G	.	1D	.
1AA	.	1A	.	2E/	.
.	.	.	.	1C/	.
*	*	*Xlig	*	*	*
=197-	=197-	=197-	=197-	=197-	=197-
*	*	*lig	*	*	*
2C/	.	1E	.	.	.
1C	.	.	.	2c\	.
.	.	1D	.	1d	.
2BB/	.	.	.	.	.
*	*	*Xlig	*	*	*
=198-	=198-	=198-	=198-	=198-	=198-
*	*	*lig	*	*	*
1C	.	1C	.	2e\	.
.	.	.	.	1d	.
1GG	.	1D	.	.	.
.	.	.	.	2B/	.
*	*	*Xlig	*	*	*
=199-	=199-	=199-	=199-	=199-	=199-
0Cl;< 0Gl	-men	0Cl;<	-men	0cl;<	-men
=-	=-	=-	=-	=-	=-
*-	*-	*-	*-	*-	*-
!!!system-decoration: [(s1,s2,s3)]
!!!RDF**kern: < = below
!!!RDF**kern: > = above
!!!RDF**kern: l = terminal long
!!!ENC: Filip Voros
!!!END: 2022-01-02
!!!ENC: Marta Chmielewska
!!!END: 2022-01-03
!!!YEC: Copyright 2022 Narodowy Instytut Fryderyka Chopina (https://polishscores.org)
!!!YEM: License CC-BY-4.0 (https://creativecommons.org/licenses/by/4.0)
